X: 3122
T: Beatrice Hill's Three Handed
R: reel
M: 4/4
K: Dmajor
|:FA|B2 A2 AFAd|c2 B2 B2 ed|cdef gece|edcB A2 FA|
B2 A2 AFAd|c2 B2 B2 ed|cdef gece|e2 d2 d2:|
|:a2|b2 afdf a2|a2 gf g2 ef|gfed cdeg|g2 fe f2 a2|
b2 afdf a2|a2 gf g2 ef|gfed cdef|e2 dc d2:|

